!!!Genre:	Skotshne
!!!Mode:	Freygish
!!!Listening/dance:	listening
!!!:	*c:; *g:
!!!One_Mode:	no
!!!Orig_tonic: unknown
**kern
*I"P1
*clefG2
*k[b-e-a-]
*g:
=14||
*>C
*k[b-e-]
8ddL
16ddL
16ffnJJ
8ee-L
8ddJ
=15
8ccL
16ccL
16ee-JJ
8ddL
8ccJ
=16
(16qqb-/LL
16qqcc/JJ
16b-LL)
16a
16b-
16ccJJ
8.ddL
16ccJk
=17
8cc
4b-
8b-
=18
16aLL
16b-JJ
4cc
16b-LL
16aJJ
=19
4g
8.fL
16fJk
=20
(16fLL
16b-)
(16b-
16ddJJ)
8ffL
16ee-L
16ddJJ
=21
4..cc
16f
=22
(16fLL
16b-)
(16b-
16ddJJ)
8ffL
16ee-L
16ddJJ
=23
(16qqcc/LL
16qqdd/JJ
16ccLL)
16b-
16cc
16ddJJ
8.ccL
16b-Jk
=24
(16b-LL
16a)
(16a
16b-JJ)
(16b-LL
16a-)
(16a-
16gJJ)
=25
2g
==
*-
